packages/token-projects/images/ausd.svg

<svg width="512" height="512" fill="none" xmlns="http://www.w3.org/2000/svg"><circle cx="256" cy="256" r="256" fill="url(#a)"/><circle cx="256" cy="256" r="256" fill="url(#b)" fill-opacity=".2"/><circle cx="256.003" cy="256" r="226.619" stroke="#fff" stroke-width="10"/><path d="M209.111 333.661v59.067c0 6.693-1.421 12.499-4.262 17.416-2.841 4.876-6.917 8.595-12.228 11.156-5.311 2.562-11.59 3.843-18.837 3.843-10.952 0-19.578-2.851-25.877-8.553-6.3-5.702-9.511-13.512-9.635-23.429v-59.5h21.802v59.934c.247 9.876 4.817 14.814 13.71 14.814 4.488 0 7.885-1.24 10.191-3.719 2.305-2.479 3.458-6.508 3.458-12.086v-58.943h21.678ZM269.079 399.917c0-3.181-1.132-5.661-3.397-7.437-2.223-1.777-6.155-3.616-11.796-5.517-5.64-1.9-10.252-3.739-13.834-5.516-11.652-5.743-17.478-13.635-17.478-23.676 0-5 1.441-9.4 4.323-13.202 2.924-3.843 7.041-6.818 12.352-8.925 5.312-2.149 11.282-3.223 17.911-3.223 6.464 0 12.249 1.157 17.354 3.471 5.147 2.314 9.141 5.62 11.981 9.917 2.841 4.256 4.262 9.132 4.262 14.627h-21.616c0-3.677-1.132-6.528-3.397-8.553-2.223-2.025-5.249-3.037-9.078-3.037-3.871 0-6.938.868-9.203 2.603-2.223 1.694-3.335 3.863-3.335 6.508 0 2.314 1.236 4.421 3.706 6.322 2.47 1.859 6.814 3.801 13.031 5.826 6.217 1.983 11.323 4.132 15.317 6.446 9.716 5.619 14.575 13.367 14.575 23.242 0 7.892-2.965 14.09-8.894 18.594-5.928 4.504-14.06 6.756-24.395 6.756-7.287 0-13.895-1.301-19.824-3.905-5.888-2.644-10.335-6.239-13.34-10.784-2.965-4.587-4.447-9.855-4.447-15.805h21.739c0 4.834 1.235 8.409 3.706 10.723 2.511 2.272 6.567 3.408 12.166 3.408 3.583 0 6.403-.764 8.462-2.293 2.099-1.57 3.149-3.76 3.149-6.57ZM301.874 423.904v-90.243h28.965c7.946 0 15.09 1.818 21.43 5.454 6.341 3.595 11.282 8.698 14.823 15.309 3.582 6.57 5.393 13.946 5.435 22.127v4.153c0 8.263-1.75 15.68-5.25 22.25-3.459 6.529-8.358 11.653-14.699 15.371-6.299 3.678-13.34 5.537-21.122 5.579h-29.582Zm21.677-73.447v56.712h7.535c6.217 0 10.993-2.211 14.328-6.632 3.335-4.462 5.003-11.074 5.003-19.833v-3.905c0-8.719-1.668-15.289-5.003-19.71-3.335-4.421-8.193-6.632-14.575-6.632h-7.288Z" fill="#fff"/><path fill-rule="evenodd" clip-rule="evenodd" d="M255.814 229.977a157.452 157.452 0 0 0-26.556 2.228l13.22-22.953c4.457-.302 8.914-.453 13.336-.453a196.04 196.04 0 0 1 31.048 2.495l-51.173-89.075-85.235 148.316-12.182-21.202 97.221-169.238.196.348.196-.337 117.334 204.238h-24.362l-27.423-47.729a156.57 156.57 0 0 0-45.62-6.649v.011Zm104.945 40.906L247.166 73.143h24.363L372.94 249.682l-12.181 21.202ZM248.021 170.714l-46.648 81.23c16.696-5.059 36.337-7.322 54.868-7.322 1.502 0 3.003 0 4.504.058a196.867 196.867 0 0 1 31.359 3.272l15.565 27.097a149.225 149.225 0 0 0-51.428-9.284 153.218 153.218 0 0 0-73.296 18.382l.347-.615-.474.812h-24.363l77.465-134.832 12.101 21.202Z" fill="#fff"/><defs><linearGradient id="a" x1="719.467" y1="717.653" x2="5.244" y2="-157.029" gradientUnits="userSpaceOnUse"><stop stop-color="#645AFF"/><stop offset=".521" stop-color="#E40C5B"/><stop offset=".986" stop-color="#FF4C3B"/></linearGradient><linearGradient id="b" x1="273.707" y1="-210.347" x2="929.97" y2="-66.164" gradientUnits="userSpaceOnUse"><stop stop-color="#fff"/><stop offset="1" stop-color="#fff" stop-opacity="0"/></linearGradient></defs></svg>

<svg width="512" height="512" viewBox="0 0 512 512" fill="none" xmlns="http://www.w3.org/2000/svg">
<circle cx="256" cy="256" r="256" fill="url(#paint0_linear_2_30)"/>
<circle cx="256" cy="256" r="256" fill="url(#paint1_linear_2_30)" fill-opacity="0.2"/>
<circle cx="256.003" cy="256" r="226.619" stroke="white" stroke-width="10"/>
<path d="M209.111 333.661V392.728C209.111 399.421 207.69 405.227 204.849 410.144C202.008 415.02 197.932 418.739 192.621 421.3C187.31 423.862 181.031 425.143 173.784 425.143C162.832 425.143 154.206 422.292 147.907 416.59C141.607 410.888 138.396 403.078 138.272 393.161V333.661H160.074V393.595C160.321 403.471 164.891 408.409 173.784 408.409C178.272 408.409 181.669 407.169 183.975 404.69C186.28 402.211 187.433 398.182 187.433 392.604V333.661H209.111Z" fill="white"/>
<path d="M269.079 399.917C269.079 396.736 267.947 394.256 265.682 392.48C263.459 390.703 259.527 388.864 253.886 386.963C248.246 385.063 243.634 383.224 240.052 381.447C228.4 375.704 222.574 367.812 222.574 357.771C222.574 352.771 224.015 348.371 226.897 344.569C229.821 340.726 233.938 337.751 239.249 335.644C244.561 333.495 250.531 332.421 257.16 332.421C263.624 332.421 269.409 333.578 274.514 335.892C279.661 338.206 283.655 341.512 286.495 345.809C289.336 350.065 290.757 354.941 290.757 360.436H269.141C269.141 356.759 268.009 353.908 265.744 351.883C263.521 349.858 260.495 348.846 256.666 348.846C252.795 348.846 249.728 349.714 247.463 351.449C245.24 353.143 244.128 355.312 244.128 357.957C244.128 360.271 245.364 362.378 247.834 364.279C250.304 366.138 254.648 368.08 260.865 370.105C267.082 372.088 272.188 374.237 276.182 376.551C285.898 382.17 290.757 389.918 290.757 399.793C290.757 407.685 287.792 413.883 281.863 418.387C275.935 422.891 267.803 425.143 257.468 425.143C250.181 425.143 243.573 423.842 237.644 421.238C231.756 418.594 227.309 414.999 224.304 410.454C221.339 405.867 219.857 400.599 219.857 394.649H241.596C241.596 399.483 242.831 403.058 245.302 405.372C247.813 407.644 251.869 408.78 257.468 408.78C261.051 408.78 263.871 408.016 265.93 406.487C268.029 404.917 269.079 402.727 269.079 399.917Z" fill="white"/>
<path d="M301.874 423.904V333.661H330.839C338.785 333.661 345.929 335.479 352.269 339.115C358.61 342.71 363.551 347.813 367.092 354.424C370.674 360.994 372.485 368.37 372.527 376.551V380.704C372.527 388.967 370.777 396.384 367.277 402.954C363.818 409.483 358.919 414.607 352.578 418.325C346.279 422.003 339.238 423.862 331.456 423.904H301.874ZM323.551 350.457V407.169H331.086C337.303 407.169 342.079 404.958 345.414 400.537C348.749 396.075 350.417 389.463 350.417 380.704V376.799C350.417 368.08 348.749 361.51 345.414 357.089C342.079 352.668 337.221 350.457 330.839 350.457H323.551Z" fill="white"/>
<path fill-rule="evenodd" clip-rule="evenodd" d="M255.814 229.977C246.915 229.968 238.032 230.713 229.258 232.205L242.478 209.252C246.935 208.95 251.392 208.799 255.814 208.799C266.213 208.806 276.595 209.64 286.862 211.294L235.689 122.219L150.454 270.535L138.272 249.333L235.493 80.0948L235.689 80.4429L235.885 80.1064L353.219 284.344H328.857L301.434 236.615C286.635 232.159 271.263 229.919 255.814 229.966V229.977ZM360.759 270.883L247.166 73.1438H271.529L372.94 249.681L360.759 270.883ZM248.021 170.714L201.373 251.944C218.069 246.885 237.71 244.622 256.241 244.622C257.743 244.622 259.244 244.622 260.745 244.68C271.268 244.93 281.754 246.025 292.104 247.952L307.669 275.049C291.199 268.952 273.793 265.81 256.241 265.765C230.669 265.674 205.477 271.992 182.945 284.147L183.292 283.532L182.818 284.344H158.455L235.92 149.512L248.021 170.714Z" fill="white"/>
<defs>
<linearGradient id="paint0_linear_2_30" x1="719.467" y1="717.653" x2="5.24403" y2="-157.029" gradientUnits="userSpaceOnUse">
<stop stop-color="#645AFF"/>
<stop offset="0.520746" stop-color="#E40C5B"/>
<stop offset="0.985908" stop-color="#FF4C3B"/>
</linearGradient>
<linearGradient id="paint1_linear_2_30" x1="273.707" y1="-210.347" x2="929.97" y2="-66.1636" gradientUnits="userSpaceOnUse">
<stop stop-color="white"/>
<stop offset="1" stop-color="white" stop-opacity="0"/>
</linearGradient>
</defs>
</svg>
